**kern	**kern
*staff2	*staff1
*clefF4	*clefG2
*k[b-e-a-]	*k[b-e-a-]
*M3/4	*M3/4
*c:	*c:
=	=
(4C' 4E-'	(4G' 4c'
4D' 4F'	4G' 4B'
4C') 4E-'	4G') 4c'
=242	=242
(4BB' 4F'	(4A-' 4c#'
4BB' 4F'	4A-' 4d'
4BB') 4F'	4A-') 4d'
=243	=243
(4BB-' 4C'	(4G' 4d#'
4BB-' 4C'	4G' 4e'
4BB-') 4C'	4G') 4e'
=244	=244
(4AA' 4C'	(4c' 4e'
4AA' 4C'	4c' 4f'
4AA') 4C'	4c') 4f'
=245	=245
(4AA-' 4E-'	(4c' 4f#'
4AA-' 4D'	4d' 4f#'
4AA-') 4C'	4e-') 4f#'
=246	=246
(4GG' 4D'	(4B' 4g'
4FF' 4D'	4B' 4a-'
4FF') 4D'	4B') 4a-'
=247	=247
(4FF' 4D'	(4B' 4a-'
4AA-' 4D'	4B' 4f'
4GG') 4D'	4B') 4g'
=248	=248
(4C' 4E-'	(4c' 4g'
4GG' 4D'	4B' 4g'
4CC') 4C'	4c') 4g'
=249||	=249||
*-	*-
